X: 10923
M: C|
L: 1/8
K: D
uA, |\
d2fd (ad)fa | gfed cecA | d2fd (ad)fa | gfec d/d/d (dA) |\
d2fd (ad)fa | gfed cecA | BGGB AFFg | fdec d/d/d "_Fine."d |]


